X:90
T:Salamanca Reel
M:4/4
L:1/8
R:reel
K:D
dB|ADFD ADFD|Adcd fdcd|BEGE BEGE|Bded cdeg|
fBdB fBdB|faec dfag|fdec dBAG|F2EF D2:|
fg|afdg bgeg|fdec dcBc|Addc defg|a2^gb a2fg|
agfa gfeg|fdec dfag|fdec dBAG|F2EF D2:|
